X: 1
T:Jig  " "
M:6/8
L:1/8
Q:80
C:/JHP
S:THE BRAES OF MELINISH
K:HP
|: e|
{g}A{d}A{e}A{g}A{d}A{e}A|
{Gdc}d2c{g}B{d}G{d}B|
{g}A{d}A{e}A{g}A{d}A{e}A|  !
{gf}g2f{gef}e2a| |
A{d}A{e}A{g}A{d}A{e}A|
{Gdc}d2c{g}B{d}G{d}B|  !
{gAGAG}A2ae{g}Ae|
d{e}G{d}B{gAGAG}A2:| |:
{d}B|  !
{gef}e2d{g}c{d}A{d}c|
{Gdc}d2c{g}B{d}G{d}B|
{gef}e2d{g}c{d}A{d}c|  !
{g}cae{g}c{d}A{d}c| |
{gef}e2d{g}c{d}A{d}c|
{Gdc}d2c{g}B{d}G{d}B|  !
{gAGAG}A2ae{g}Ae|
d{e}G{d}B{gAGAG}A2:| |:
{d}B|  !
{gAGAG}A2e{g}e2{GdG}e|
{g}d{e}Gd{g}B{d}G{d}B|
{gAGAG}A2e{g}e2{GdG}e|  !
{g}f2{GdG}f{g}e2{GdG}e| |
{g}f2{GdG}f{g}e2{GdG}e|
{g}d{e}Gd{g}B{d}G{d}B|  !
{gAGAG}A2ae{g}Ae|
d{e}G{d}B{gAGAG}A2:| |:
B|  !
{gAGAG}A2a-a2{GdG}a|
g2{GdG}gB{d}G{d}B|
{gAGAG}A2a-a2{GdG}a|  !
g2{GdG}a-a2{GdG}a| |
g2{GdG}a-a2{GdG}a|
g2{GdG}gB{d}G{d}B|  !
{gAGAG}A2ae{g}Ae|
d{e}G{d}B{gAGAG}A2:|
